static/tag/正则表达式.svg

<?xml version="1.0" standalone="no"?><!DOCTYPE svg PUBLIC "-//W3C//DTD SVG 1.1//EN" "http://www.w3.org/Graphics/SVG/1.1/DTD/svg11.dtd"><svg t="1565075964324" class="icon" viewBox="0 0 1024 1024" version="1.1" xmlns="http://www.w3.org/2000/svg" p-id="208906" xmlns:xlink="http://www.w3.org/1999/xlink" width="200" height="200"><defs><style type="text/css"></style></defs><path d="M327.09117 521.957679 297.930033 473.553719C277.28673 439.118285 260.359477 416.942198 247.147763 407.024792 233.93605 397.107388 219.898817 392.148759 205.035638 392.148759L163.749242 392.148759 163.749242 640.082644 27.504132 640.082644 27.504132 0 251.689267 0C403.899212 0 480.003042 57.850661 480.003042 173.553719 480.003042 217.080108 467.273197 254.407557 441.813125 285.537191 416.353054 316.666823 381.328778 338.56743 336.739245 351.239669L336.739245 352.892562C366.190355 362.809966 398.806283 395.316529 434.588006 450.413223L439.877638 458.735326C397.532154 471.368816 359.160917 493.218678 327.09117 521.957679ZM163.749242 103.719008 163.749242 288.016528 230.633205 288.016528C262.561511 288.016528 288.227633 278.719101 307.632335 260.123967 327.037038 241.528832 336.739245 218.319699 336.739245 190.495867 336.739245 132.644339 302.196639 103.719008 233.110388 103.719008L163.749242 103.719008ZM670.916547 958.728374C629.192365 986.892239 578.904902 1003.33554 524.776903 1003.33554 380.334812 1003.33554 263.241362 886.242092 263.241362 741.800002 263.241362 597.357913 380.334812 480.264463 524.776903 480.264463 669.218992 480.264463 786.312442 597.357913 786.312442 741.800002 786.312442 801.903208 766.038399 857.271158 731.956095 901.43807L783.089357 952.571335C799.432277 968.914254 799.439902 995.403734 783.098368 1011.745269 766.760425 1028.083211 740.277788 1028.089613 723.924433 1011.736259L670.916547 958.728374ZM802.466655 640.082644 996.495868 640.082644 996.495868 528.512398 754.144717 528.512398 754.144717 373.553719 965.53107 373.553719 965.53107 262.396695 754.144717 262.396695 754.144717 111.570248 981.632766 111.570248 981.632766 0 617.899609 0 617.899609 460.532287C703.451318 489.030715 771.645288 555.558258 802.46664 640.082644ZM524.776903 945.216533C637.120749 945.216533 728.193432 854.14385 728.193432 741.800002 728.193432 629.456153 637.120749 538.383472 524.776903 538.383472 412.433055 538.383472 321.360371 629.456153 321.360371 741.800002 321.360371 854.14385 412.433055 945.216533 524.776903 945.216533Z" p-id="208907" fill="#13227a"></path></svg>

<svg viewBox="0 0 1024 1024" xmlns="http://www.w3.org/2000/svg" width="200" height="200"><path d="m327.091 521.958-29.161-48.404c-20.643-34.436-37.57-56.612-50.782-66.53-13.212-9.917-27.25-14.875-42.112-14.875h-41.287v247.934H27.504V0H251.69C403.9 0 480.003 57.85 480.003 173.554c0 43.526-12.73 80.854-38.19 111.983-25.46 31.13-60.484 53.03-105.074 65.703v1.653c29.451 9.917 62.067 42.424 97.849 97.52l5.29 8.322c-42.346 12.634-80.717 34.484-112.787 63.223zM163.75 103.719v184.298h66.884c31.929 0 57.595-9.298 77-27.893 19.404-18.595 29.106-41.804 29.106-69.628 0-57.852-34.542-86.777-103.629-86.777h-69.36zm507.168 855.01c-41.725 28.163-92.012 44.607-146.14 44.607-144.442 0-261.536-117.094-261.536-261.536s117.094-261.536 261.536-261.536S786.312 597.358 786.312 741.8c0 60.103-20.274 115.471-54.356 159.638l51.133 51.133c16.343 16.343 16.35 42.833.01 59.174-16.339 16.338-42.821 16.345-59.175-.009l-53.007-53.008zm131.55-318.646h194.029v-111.57H754.145v-154.96H965.53V262.398H754.145V111.57h227.488V0H617.9v460.532c85.551 28.499 153.745 95.026 184.567 179.55zm-277.69 305.134c112.344 0 203.416-91.073 203.416-203.417 0-112.344-91.072-203.417-203.416-203.417S321.36 629.456 321.36 741.8c0 112.344 91.073 203.417 203.417 203.417z" fill="#13227a"/></svg>
